icons/glyphs/glyph-flash=movie-file.svg

<?xml version="1.0" encoding="UTF-8" standalone="no"?><svg height="16mm" viewBox="0 0 16 16" width="16mm" xmlns="http://www.w3.org/2000/svg"><sodipodi:namedview/><metadata><rdf:RDF><cc:Work><dc:format>image/svg+xml</dc:format><dc:type/><dc:title/></cc:Work></rdf:RDF></metadata><path d="m0 7.5585938v45.3554682h60.472656v-34.841796l-10.515625-10.5136722zm40.724609 9.0058592c.299297-.004432.46541.009657.466797.009766v5.90039c-6.026878.10283-7.507812 5.851563-7.507812 5.851563h4.546875v5.902344h-7.048828c-4.239749 12.788604-13.996094 11.65039-13.996094 11.65039v-5.902344s6.191465 1.122477 9.349609-10.148437c3.455383-12.335985 12.085616-13.232519 14.189453-13.263672z" fill="#d0d0d0" stroke-width="2.052171" transform="scale(.26458333)"/></svg>

<?xml version="1.0" encoding="UTF-8" standalone="no"?>
<!-- Created with Inkscape (http://www.inkscape.org/) -->

<svg
   xmlns:dc="http://purl.org/dc/elements/1.1/"
   xmlns:cc="http://creativecommons.org/ns#"
   xmlns:rdf="http://www.w3.org/1999/02/22-rdf-syntax-ns#"
   xmlns:svg="http://www.w3.org/2000/svg"
   xmlns="http://www.w3.org/2000/svg"
   xmlns:sodipodi="http://sodipodi.sourceforge.net/DTD/sodipodi-0.dtd"
   xmlns:inkscape="http://www.inkscape.org/namespaces/inkscape"
   width="16mm"
   height="16mm"
   viewBox="0 0 16 16"
   version="1.1"
   id="svg8"
   inkscape:version="0.92+devel (bc9c9b4297, 2017-07-16, custom)"
   sodipodi:docname="glyph-flash=movie-file.svg">
  <defs
     id="defs2" />
  <sodipodi:namedview
     id="base"
     pagecolor="#002466"
     bordercolor="#ffffff"
     borderopacity="0.38039216"
     inkscape:pageopacity="1"
     inkscape:pageshadow="2"
     inkscape:zoom="7.1685545"
     inkscape:cx="30.23622"
     inkscape:cy="30.23622"
     inkscape:document-units="mm"
     inkscape:current-layer="svg8"
     inkscape:document-rotation="0"
     showgrid="false"
     inkscape:showpageshadow="false"
     borderlayer="true"
     inkscape:window-width="1920"
     inkscape:window-height="1051"
     inkscape:window-x="0"
     inkscape:window-y="0"
     inkscape:window-maximized="1"
     inkscape:snap-bbox="true"
     inkscape:snap-intersection-paths="true"
     inkscape:object-paths="true"
     showguides="false" />
  <metadata
     id="metadata5">
    <rdf:RDF>
      <cc:Work
         rdf:about="">
        <dc:format>image/svg+xml</dc:format>
        <dc:type
           rdf:resource="http://purl.org/dc/dcmitype/StillImage" />
        <dc:title></dc:title>
      </cc:Work>
    </rdf:RDF>
  </metadata>
  <path
     style="fill:#d0d0d0;stroke-width:2.05217075"
     d="M 0 7.5585938 L 0 52.914062 L 60.472656 52.914062 L 60.472656 18.072266 L 49.957031 7.5585938 L 0 7.5585938 z M 40.724609 16.564453 C 41.023906 16.560021 41.190019 16.57411 41.191406 16.574219 L 41.191406 22.474609 C 35.164528 22.577439 33.683594 28.326172 33.683594 28.326172 L 38.230469 28.326172 L 38.230469 34.228516 L 31.181641 34.228516 C 26.941892 47.01712 17.185547 45.878906 17.185547 45.878906 L 17.185547 39.976562 C 17.185547 39.976562 23.377012 41.099039 26.535156 29.828125 C 29.990539 17.49214 38.620772 16.595606 40.724609 16.564453 z "
     transform="scale(0.26458333)"
     id="rect816" />
</svg>
